icons/Julia-Dark.svg

<svg width="256" height="256" viewBox="0 0 256 256" fill="none" xmlns="http://www.w3.org/2000/svg">
<rect width="256" height="256" rx="60" fill="#242938"/>
<path d="M118.509 177.431C118.509 203.866 97.3497 225.282 71.2544 225.282C45.1484 225.282 24 203.866 24 177.431C24 151.006 45.1484 129.58 71.2544 129.58C97.3497 129.58 118.509 151.006 118.509 177.431Z" fill="#CB3C33"/>
<path d="M232.046 177.431C232.046 203.866 210.887 225.282 184.791 225.282C158.696 225.282 137.537 203.866 137.537 177.431C137.537 151.006 158.696 129.58 184.791 129.58C210.887 129.58 232.046 151.006 232.046 177.431Z" fill="#9558B2"/>
<path d="M175.288 77.8511C175.288 104.276 154.129 125.702 128.033 125.702C101.927 125.702 80.7791 104.276 80.7791 77.8511C80.7791 51.4262 101.927 30 128.033 30C154.129 30 175.288 51.4262 175.288 77.8511Z" fill="#389826"/>
</svg>

<svg xmlns="http://www.w3.org/2000/svg" width="256" height="256" fill="none" viewBox="0 0 256 256"><rect width="256" height="256" fill="#242938" rx="60"/><path fill="#CB3C33" d="M118.5 177.43c0 26.44-21.15 47.85-47.25 47.85S24 203.87 24 177.43c0-26.42 21.15-47.85 47.25-47.85s47.26 21.43 47.26 47.85"/><path fill="#9558B2" d="M232.05 177.43c0 26.44-21.16 47.85-47.26 47.85s-47.25-21.41-47.25-47.85c0-26.42 21.16-47.85 47.25-47.85 26.1 0 47.26 21.43 47.26 47.85"/><path fill="#389826" d="M175.29 77.85c0 26.43-21.16 47.85-47.26 47.85s-47.25-21.42-47.25-47.85S101.93 30 128.03 30s47.26 21.43 47.26 47.85"/></svg>
